X: 12
M: C|
L: 1/8
K: G
|:\
(3BcB (3ABA (3GAG (3FGF | EAAF G2G,2 :|
gb2a/g/ fa2g/f/ | edA^c d2"D.C."D2 |]
|:\
g2a2 bgd2 | gdBG AGFE D2 |\
g2a2 bgdg | {g}fe/d/ ed/^c/ d2D2 :|
|:\


